resources/svg/window-2-fill.svg

<svg fill="currentColor" viewBox="0 0 24 24" xmlns="http://www.w3.org/2000/svg"><path d="M3 3H21C21.5523 3 22 3.44772 22 4V20C22 20.5523 21.5523 21 21 21H3C2.44772 21 2 20.5523 2 20V4C2 3.44772 2.44772 3 3 3ZM20 10H4V19H20V10ZM15 6V8H19V6H15Z"/></svg>

<svg xmlns="http://www.w3.org/2000/svg" viewBox="0 0 24 24" fill="currentColor">
    <g>
        <path fill="none" d="M0 0h24v24H0z"/>
        <path d="M3 3h18a1 1 0 0 1 1 1v16a1 1 0 0 1-1 1H3a1 1 0 0 1-1-1V4a1 1 0 0 1 1-1zm17 7H4v9h16v-9zm-5-4v2h4V6h-4z"/>
    </g>
</svg>
